!!!OTL: Xiashui bannao haozi 7.Qifu landanao haozi
!!!ARE: Asia, China,ÿSichuan, Chongqing
!! Hanzu minge gailun, 83
!!!SCT: C1713F
!!!YEM: Copyright 1995, estate of Helmut Schaffrath.
**kern
*ICvox
*Ivox
*M2/4
*k[f#c#g#]
*A:
{2b}
=1
{16cc#
16b
16a
16a
8a
8f#}
=2
{16b
16cc#
16a
16a
8a
8f#}
=3
{16e
16e
16f#
16e
8a
8f#}
=4
{8.cc#
16a
4b}
=5
{16.ff#
32ee
16cc#
16ee
4ff#
=6
16.ff#
32ee
16.cc#
32b
4b}
=7
{16ff#
16ee
16ff#
16ee
16ff#
8.ee
=8
16cc#
8.b
8b}
{16ff#
16ee
=9
16cc#
16b
16a
16a
8a
8f#}
=10
{16b
16cc#
16a
16a
8a
8f#}
=11
{16e
16e
16f#
16f#
8a
8f#}
==
!!!AGN: Haozi, Chuanjiang chuanfu haozi
!!!AMT: simple duple
!!!AIN: vox
!!!EED: Helmut Schaffrath
!!!EEV: 1.0
*-
